src/icons/restrict.svg

<?xml version="1.0" encoding="UTF-8"?>
<svg xmlns="http://www.w3.org/2000/svg" xmlns:xlink="http://www.w3.org/1999/xlink" width="32" height="32" viewBox="0 0 32 32" version="1.1">
<g id="surface1">
<path style=" stroke:none;fill-rule:nonzero;fill:rgb(0%,0%,0%);fill-opacity:1;" d="M 1.28125 5.121094 L 1.28125 15.359375 L 30.71875 15.359375 L 30.71875 5.121094 Z M 2.558594 6.398438 L 7.039062 6.398438 L 2.558594 10.878906 Z M 12.160156 6.398438 L 17.28125 6.398438 L 9.601562 14.078125 L 4.480469 14.078125 Z M 22.398438 6.398438 L 27.519531 6.398438 L 19.839844 14.078125 L 14.71875 14.078125 Z M 29.441406 9.601562 L 29.441406 14.078125 L 24.960938 14.078125 Z M 2.558594 16 L 2.558594 26.878906 L 6.398438 26.878906 L 6.398438 16 Z M 25.601562 16 L 25.601562 26.878906 L 29.441406 26.878906 L 29.441406 16 Z M 25.601562 16 "/>
</g>
</svg>

<svg role="img" viewBox="0 0 32 32" xmlns="http://www.w3.org/2000/svg"><path d="M1.281 5.121V15.36H30.72V5.121ZM2.56 6.398h4.48l-4.48 4.48Zm9.601 0h5.121l-7.68 7.68h-5.12Zm10.238 0h5.122l-7.68 7.68H14.72Zm7.043 3.204v4.476h-4.48ZM2.56 16v10.879H6.4V16Zm23.043 0v10.879h3.84V16Zm0 0" style="stroke:none;fill-rule:nonzero;fill:rgb(0%,0%,0%);fill-opacity:1"/></svg>
